src/lib/packages/icons/src/assets/line/salt.svg

<svg width="24" height="24" viewBox="0 0 24 24" fill="none" xmlns="http://www.w3.org/2000/svg">
<path d="M9.25994 5.5C9.25994 5.09 9.58994 4.75 10.0099 4.75C10.4299 4.75 10.7599 5.09 10.7599 5.5C10.7599 5.91 10.4299 6.25 10.0099 6.25C9.58994 6.25 9.25994 5.91 9.25994 5.5ZM14.0099 6.25C14.4299 6.25 14.7599 5.91 14.7599 5.5C14.7599 5.09 14.4299 4.75 14.0099 4.75C13.5999 4.75 13.2599 5.09 13.2599 5.5C13.2599 5.91 13.5999 6.25 14.0099 6.25ZM12.0099 7.25C12.4299 7.25 12.7599 6.91 12.7599 6.5C12.7599 6.09 12.4299 5.75 12.0099 5.75C11.5999 5.75 11.2599 6.09 11.2599 6.5C11.2599 6.91 11.5999 7.25 12.0099 7.25ZM18.5399 18.75C18.6099 19.52 18.3499 20.28 17.8299 20.85C17.3099 21.42 16.5699 21.75 15.7999 21.75H8.17992C7.40992 21.75 6.66992 21.42 6.14992 20.85C5.62992 20.28 5.36993 19.51 5.43993 18.75L6.23992 9.95999V8C6.23992 4.83 8.81992 2.25 11.9899 2.25C15.1599 2.25 17.7399 4.83 17.7399 8V9.95999L18.5399 18.75ZM7.73992 8V9.25H16.2399V8C16.2399 5.66 14.3299 3.75 11.9899 3.75C9.64992 3.75 7.73992 5.66 7.73992 8ZM17.0399 18.89L16.2999 10.75H7.66994L6.92992 18.89C6.89992 19.24 7.00993 19.58 7.24993 19.85C7.48993 20.11 7.81994 20.26 8.16994 20.26H15.7899C16.1499 20.26 16.4699 20.12 16.7099 19.85C16.9499 19.59 17.0599 19.25 17.0299 18.89H17.0399ZM9.98992 12.25C9.57992 12.25 9.23992 12.59 9.23992 13V18C9.23992 18.41 9.57992 18.75 9.98992 18.75C10.3999 18.75 10.7399 18.41 10.7399 18V13C10.7399 12.59 10.3999 12.25 9.98992 12.25ZM13.9899 12.25C13.5799 12.25 13.2399 12.59 13.2399 13V18C13.2399 18.41 13.5799 18.75 13.9899 18.75C14.3999 18.75 14.7399 18.41 14.7399 18V13C14.7399 12.59 14.3999 12.25 13.9899 12.25Z" fill="currentColor"/>
</svg>

<svg xmlns="http://www.w3.org/2000/svg" width="24" height="24" fill="none"><path fill="currentColor" d="M9.26 5.5a.749.749 0 1 1 1.5 0 .749.749 0 1 1-1.5 0Zm4.75.75a.749.749 0 1 0 .002-1.498.749.749 0 0 0-.002 1.498Zm-2 1a.749.749 0 1 0 .002-1.498.749.749 0 0 0-.002 1.498Zm6.53 11.5a2.757 2.757 0 0 1-2.74 3H8.18a2.757 2.757 0 0 1-2.74-3l.8-8.79V8c0-3.17 2.58-5.75 5.75-5.75S17.74 4.83 17.74 8v1.96l.8 8.79ZM7.74 8v1.25h8.5V8a4.26 4.26 0 0 0-4.25-4.25A4.26 4.26 0 0 0 7.74 8Zm9.3 10.89-.74-8.14H7.67l-.74 8.14a1.251 1.251 0 0 0 1.24 1.37h7.62c.36 0 .68-.14.92-.41.24-.26.35-.6.32-.96h.01Zm-7.05-6.64c-.41 0-.75.34-.75.75v5c0 .41.34.75.75.75s.75-.34.75-.75v-5c0-.41-.34-.75-.75-.75Zm4 0c-.41 0-.75.34-.75.75v5c0 .41.34.75.75.75s.75-.34.75-.75v-5c0-.41-.34-.75-.75-.75Z"/></svg>
